X: 1
T: The Blackthorn Stick
M: 6/8
L: 1/8
K: A
e | aga faf | ecA BAF | EAA GAB | cBA B2 e |
    aga baf | ecA BAF | EAA GAB | cAA A2 :|
|: e | fee aee | fee aee | fee agf | edc B2 g |
       aga baf | ecA BAF | EAA GAB | cAA A2:|]
